X:17693
T:Touch the String. GHW.070
T:
M:2/4
L:1/8
Q:250
S:George H.Watson,MS,Swanton Abbott,Norfolk,1850-1880
R:Reel
O:England
A:Norfolk
Z:vmp.Taz Tarry
K:D
d|AFFD|CEEG|FDFA|d2cB|AFFD|CEEG|FDAF|D2D F|!
BcdB|ceAA|BcdB|{cd}e2 AA|BcdB|cdec|{de}fdc>B|d2c>B|!
|AFFD|CEEG|FDFA|d2cB|AFFD|CEEG|FDAF|D2D|]
